X: 1434
T: For Love of Lorrie
C:Harry Gardner
B: australian traditional tunes wiki
M:3/4
L:1/8
R: Air
Q: 1/4=100
K:D
V:1 
DE||"D"F4ED|A,4DE|F4ED|"A7"A4F2|"D"F2E2D2|A4F2|"G"G6-|"A7"G4G2|
"G"G4G2|B2B2B2|"A7"A4"D"F2|"A7"A4A2|"D"A4F2|F4"G"D2|"A7"E6-|E4A2|
"G"B4B2|B4AF|"D"A4F2|D4A2|"G"B2B2B2|d4B2|"A7"c6-|c4DE|
"D"F4ED|A,4DE|F2E2D2|"A7"A4F2|F2E2"D"D2|"A7"E4E2|"D"D6-|D4||
% abcbook-tune_id 6342d53a40daf150cbf0e175


% abcbook-boost 0
% abcbook-tablature 
% abcbook-transpose 
% abcbook-lastupdated 1665324364910
% abcbook-soundfonts 
% abcbook-repeats 1
% NFF Book 2013

